X:1
T:Normandy Carol, 11.11.11.11 D
T:Normandy Carol, 11.11.11.11 D
T:Anonymous
T:Public Domain Courtesy of the Cyber Hymnal™
C:Anonymous
Z:Public Domain
Z:Courtesy of the Cyber Hymnal™
%%score ( 1 2 ) ( 3 4 )
L:1/8
Q:1/4=110
M:3/4
K:Bb
V:1 treble 
V:2 treble 
V:3 bass 
V:4 bass 
V:1
|: D2 | [DG]2 [DG]2 [DG][FA] | [FB]2 [FB]2 BA | [DG]2 [DG]2 [CF]2 | D4 ([B,D][CF]) | %5
 [DG]2 [DG]2 [CF]2 | [B,D]2 [B,D]2 ([B,D][CF]) | [DG]2 [DG]2 [CF]2 | [B,D]4 D2 | %9
 [B,G]2 [B,G]2 ([B,G][DA]) | [DB]2 [DB]2 (BA) | [DB]2 [DB]2 [Fc]2 | [Fd]4 (dc) | %13
 [DB]2 [DB]2 ([GB][FA]) | [EG]2 [EG]2 [DF]2 |1 [CE]2 [CE]2 C2 | [A,D]4 :|2 [CE]2 [CE]2 C2 || %18
 [B,D]4 |] %19
V:2
|: D2 | x6 | x4 F2 | x6 | D4 x2 | x6 | x6 | x6 | x4 (DC) | x6 | x4 D2 | x6 | x4 F2 | x6 | x6 |1 %15
 x4 C2 | x4 :|2 x4 C2 || x4 |] %19
V:3
|: D,2 | [G,B,]2 [G,B,]2 ([G,B,][F,C]) | [B,D]2 [B,D]2 ([B,D][F,C]) | [G,B,]2 [G,B,]2 A,2 | %4
 B,4 F,2 | [G,,B,]2 [G,,B,]2 [A,,A,]2 | [B,,F,]2 [B,,F,]2 F,2 | [A,,B,]2 [A,,B,]2 [A,,A,]2 | %8
 [B,,F,]4 (B,A,) | [E,G,]2 [E,G,]2 ([E,G,][D,^F,]) | G,2 G,2 [D,^F,] x | G,2 G,2 [F,A,]2 | %12
 B,4 [F,A,] x | [G,B,]2 G,2 D2 | [E,B,]2 [E,B,]2 [B,,B,]2 |1 [C,G,]2 [C,G,]2 [E,G,]2 | [D,^F,]4 :|2 %17
 [C,G,]2 [C,G,]2 [E,G,]2 || [B,,F,]4 |] %19
V:4
|: D,2 | x6 | x6 | x4 A,2 | B,4 (B,,A,,) | x6 | x4 (B,,A,,) | x6 | x4 B,,2 | x6 | G,2 G,2 G, x | %11
 G,2 G,2 x2 | B,4 B, x | x4 (G,D,) | x6 |1 x6 | x4 :|2 x6 || x4 |] %19

